X:1
T:Title
%%score { 1 | 2 }
L:1/8
M:4/4
K:F
V:1 treble nm="Grand Piano"
V:2 bass 
V:1
 z8[Q:1/4=100] | F3 F F3 G | A2 c2 c2 A2 | [EG]3 [EG] [EG]3 [FA] | [GB]2 [GB]2 A4 | F3 F F3 G | %6
 A2 c2 c2 A2 | G3 c c=BAB |[M:3/4] [Ec]6 |[M:1/4] [Ec][GB] |[M:4/4] A2 A2 A2 B2 | c6 cc | %12
 d2 d2 f2 d2 |[M:3/4] c6 |[M:1/4] cB |[M:4/4] A2 A2 [EG]2 F2 | [Fd]6 [Fd][Fd] | [Fc]4 E4 | %18
[M:3/4] F6 |] %19
V:2
 z8 | [F,A,C]3 [F,A,C] [F,A,C]3 [F,B,C] | [F,CF]2 [F,A,F]2 [F,A,F]2 [F,CF]2 | %3
 [C,C]3 [C,C] [C,C]3 [C,C] | [C,C]2 [C,C]2 [F,CF]4 | [F,A,C]3 [F,A,C] [F,A,C]3 [F,B,C] | %6
 [F,CF]2 [F,A,F]2 [F,A,F]2 [F,CF]2 | [G,CE]3 [G,CE] [G,DF][G,DF][G,DF][G,DF] | %8
[M:3/4][K:bass] [C,C]6 |[M:1/4] [C,C][E,C] |[M:4/4] [F,CF]2 [F,CF]2[K:treble] [F,CF]2 [G,CE]2 | %11
 [A,CF]6 [F,A,F][F,A,F] | [B,F]2 [B,F]2 [B,DF]2 [B,F]2 |[M:3/4][K:bass] [F,A,F]6 | %14
[M:1/4] [F,A,F][F,DF] |[M:4/4] [F,CF]2 [F,CF]2 [C,B,]2 [D,A,]2 | [B,,B,]6 [B,,B,][B,,B,] | %17
 [C,A,]4 [C,B,C]4 |[M:3/4] [F,A,C]6 |] %19

